icons/dm.svg

<?xml version="1.0" ?>
<svg xmlns="http://www.w3.org/2000/svg" xmlns:ev="http://www.w3.org/2001/xml-events" xmlns:xlink="http://www.w3.org/1999/xlink" baseProfile="full" height="600px" version="1.1" viewBox="1717.2518142473605 -1025.0776031418627 6804.012880202903 12289.46145870372" width="333px">
	<defs/>
	<path d="M 3165.0,10233.0 C 3046.0,10230.0 3014.0,10226.0 3007.0,10215.0 C 2998.0,10198.0 2914.0,10195.0 2840.0,10210.0 C 2801.0,10217.0 2791.0,10215.0 2764.0,10195.0 C 2725.0,10165.0 2674.0,10030.0 2626.0,9828.0 L 2591.0,9682.0 L 2614.0,9602.0 C 2636.0,9525.0 2637.0,9521.0 2619.0,9503.0 C 2597.0,9480.0 2604.0,9430.0 2632.0,9422.0 C 2643.0,9420.0 2664.0,9392.0 2680.0,9360.0 L 2709.0,9303.0 L 2688.0,9244.0 C 2676.0,9212.0 2649.0,9160.0 2628.0,9129.0 L 2591.0,9072.0 L 2473.0,9065.0 C 2328.0,9056.0 2321.0,9050.0 2321.0,8945.0 C 2321.0,8882.0 2323.0,8873.0 2345.0,8857.0 C 2366.0,8842.0 2375.0,8841.0 2417.0,8851.0 C 2443.0,8858.0 2481.0,8871.0 2502.0,8881.0 C 2609.0,8935.0 2688.0,8909.0 2775.0,8794.0 L 2830.0,8721.0 L 2830.0,8631.0 C 2830.0,8543.0 2829.0,8541.0 2786.0,8471.0 C 2754.0,8419.0 2741.0,8387.0 2737.0,8347.0 C 2730.0,8280.0 2703.0,8225.0 2636.0,8142.0 L 2585.0,8079.0 L 2518.0,8083.0 L 2450.0,8087.0 L 2419.0,8039.0 C 2402.0,8012.0 2380.0,7990.0 2371.0,7990.0 C 2360.0,7990.0 2342.0,7965.0 2319.0,7918.0 C 2284.0,7846.0 2284.0,7844.0 2295.0,7787.0 C 2302.0,7755.0 2309.0,7728.0 2311.0,7727.0 C 2313.0,7725.0 2339.0,7707.0 2368.0,7686.0 L 2420.0,7648.0 L 2420.0,7575.0 C 2420.0,7505.0 2422.0,7500.0 2449.0,7481.0 C 2473.0,7464.0 2479.0,7450.0 2485.0,7404.0 C 2490.0,7358.0 2499.0,7340.0 2530.0,7306.0 C 2566.0,7267.0 2568.0,7260.0 2579.0,7165.0 C 2589.0,7078.0 2588.0,7058.0 2575.0,7020.0 C 2566.0,6995.0 2552.0,6951.0 2545.0,6922.0 L 2531.0,6869.0 L 2571.0,6783.0 C 2594.0,6732.0 2610.0,6684.0 2608.0,6666.0 C 2607.0,6642.0 2625.0,6610.0 2692.0,6515.0 C 2764.0,6415.0 2779.0,6387.0 2785.0,6345.0 C 2789.0,6318.0 2812.0,6237.0 2837.0,6165.0 C 2881.0,6040.0 2885.0,6032.0 2950.0,5965.0 C 3001.0,5913.0 3025.0,5878.0 3044.0,5831.0 C 3058.0,5795.0 3070.0,5762.0 3070.0,5756.0 C 3069.0,5750.0 3056.0,5729.0 3040.0,5710.0 C 3006.0,5671.0 3004.0,5659.0 3025.0,5599.0 C 3045.0,5543.0 3073.0,5514.0 3190.0,5430.0 C 3318.0,5338.0 3327.0,5328.0 3332.0,5255.0 C 3336.0,5198.0 3341.0,5187.0 3437.0,5048.0 L 3537.0,4901.0 L 3544.0,4786.0 C 3549.0,4707.0 3548.0,4659.0 3539.0,4632.0 C 3524.0,4581.0 3531.0,4555.0 3575.0,4497.0 C 3594.0,4472.0 3610.0,4443.0 3610.0,4432.0 C 3610.0,4400.0 3646.0,4364.0 3738.0,4303.0 C 3840.0,4235.0 3877.0,4197.0 3886.0,4152.0 C 3890.0,4132.0 3904.0,4110.0 3921.0,4098.0 C 3964.0,4066.0 4020.0,3974.0 4041.0,3903.0 C 4061.0,3831.0 4093.0,3786.0 4185.0,3702.0 C 4238.0,3654.0 4257.0,3627.0 4290.0,3554.0 C 4326.0,3478.0 4330.0,3459.0 4325.0,3420.0 C 4319.0,3378.0 4340.0,3203.0 4359.0,3135.0 C 4366.0,3110.0 4360.0,3089.0 4329.0,3021.0 C 4284.0,2924.0 4282.0,2900.0 4310.0,2764.0 C 4324.0,2695.0 4336.0,2660.0 4350.0,2650.0 C 4360.0,2642.0 4387.0,2607.0 4409.0,2572.0 L 4450.0,2510.0 L 4435.0,2407.0 C 4410.0,2228.0 4410.0,2221.0 4441.0,2160.0 C 4477.0,2088.0 4513.0,2055.0 4584.0,2030.0 C 4657.0,2005.0 4724.0,1946.0 4769.0,1865.0 L 4802.0,1805.0 L 4792.0,1638.0 C 4782.0,1491.0 4778.0,1465.0 4755.0,1421.0 C 4735.0,1381.0 4730.0,1356.0 4730.0,1300.0 C 4730.0,1239.0 4737.0,1211.0 4778.0,1102.0 C 4812.0,1013.0 4829.0,953.0 4834.0,902.0 C 4839.0,844.0 4847.0,819.0 4869.0,786.0 C 4905.0,735.0 4998.0,661.0 5074.0,623.0 L 5132.0,595.0 L 5125.0,535.0 C 5121.0,496.0 5102.0,439.0 5071.0,370.0 C 5045.0,312.0 5015.0,244.0 5004.0,218.0 C 4987.0,175.0 4982.0,170.0 4954.0,170.0 C 4934.0,170.0 4915.0,179.0 4900.0,195.0 C 4874.0,222.0 4830.0,229.0 4830.0,206.0 C 4830.0,153.0 4879.0,110.0 4941.0,110.0 C 4963.0,110.0 4984.0,100.0 5011.0,75.0 C 5047.0,42.0 5055.0,40.0 5116.0,40.0 C 5165.0,40.0 5192.0,34.0 5220.0,19.0 C 5255.0,-1.0 5259.0,-1.0 5288.0,14.0 C 5305.0,23.0 5336.0,30.0 5357.0,30.0 C 5378.0,30.0 5406.0,37.0 5419.0,46.0 C 5436.0,59.0 5455.0,61.0 5498.0,57.0 C 5547.0,52.0 5557.0,54.0 5583.0,76.0 C 5607.0,96.0 5623.0,101.0 5654.0,99.0 C 5677.0,97.0 5713.0,101.0 5735.0,108.0 C 5757.0,114.0 5791.0,122.0 5812.0,125.0 C 5858.0,132.0 5863.0,148.0 5849.0,223.0 C 5837.0,282.0 5837.0,284.0 5861.0,299.0 C 5874.0,308.0 5908.0,337.0 5937.0,363.0 C 5980.0,403.0 6001.0,415.0 6060.0,430.0 C 6100.0,440.0 6156.0,461.0 6186.0,477.0 L 6240.0,505.0 L 6240.0,560.0 C 6240.0,599.0 6246.0,622.0 6260.0,640.0 C 6271.0,654.0 6280.0,681.0 6280.0,700.0 C 6280.0,747.0 6323.0,850.0 6352.0,872.0 C 6365.0,882.0 6396.0,897.0 6421.0,905.0 C 6462.0,919.0 6470.0,919.0 6496.0,905.0 C 6529.0,888.0 6590.0,886.0 6639.0,900.0 C 6682.0,912.0 6745.0,883.0 6754.0,847.0 C 6757.0,833.0 6770.0,816.0 6783.0,807.0 C 6804.0,794.0 6810.0,795.0 6870.0,831.0 C 6927.0,866.0 6941.0,870.0 6999.0,870.0 C 7035.0,870.0 7084.0,865.0 7107.0,860.0 C 7144.0,851.0 7160.0,854.0 7232.0,880.0 C 7277.0,897.0 7323.0,910.0 7333.0,910.0 C 7344.0,910.0 7378.0,937.0 7411.0,973.0 C 7458.0,1025.0 7477.0,1039.0 7512.0,1046.0 L 7555.0,1055.0 L 7563.0,1140.0 C 7567.0,1187.0 7573.0,1254.0 7576.0,1290.0 C 7579.0,1326.0 7586.0,1359.0 7591.0,1364.0 C 7596.0,1370.0 7600.0,1416.0 7600.0,1468.0 C 7600.0,1552.0 7603.0,1566.0 7628.0,1608.0 C 7652.0,1649.0 7655.0,1665.0 7655.0,1740.0 L 7655.0,1825.0 L 7754.0,1877.0 C 7809.0,1906.0 7857.0,1933.0 7862.0,1938.0 C 7867.0,1943.0 7861.0,1958.0 7849.0,1974.0 C 7828.0,2000.0 7828.0,2006.0 7839.0,2066.0 L 7851.0,2131.0 L 7820.0,2156.0 C 7786.0,2185.0 7782.0,2205.0 7807.0,2232.0 C 7822.0,2249.0 7822.0,2251.0 7807.0,2268.0 C 7784.0,2293.0 7786.0,2317.0 7810.0,2325.0 C 7827.0,2330.0 7830.0,2340.0 7830.0,2391.0 C 7830.0,2433.0 7837.0,2463.0 7852.0,2493.0 C 7869.0,2525.0 7875.0,2560.0 7880.0,2645.0 C 7886.0,2742.0 7890.0,2761.0 7915.0,2804.0 C 7956.0,2873.0 7951.0,2927.0 7895.0,3054.0 C 7870.0,3108.0 7847.0,3168.0 7844.0,3188.0 C 7840.0,3207.0 7819.0,3262.0 7798.0,3309.0 C 7765.0,3380.0 7759.0,3402.0 7763.0,3439.0 C 7766.0,3468.0 7761.0,3502.0 7749.0,3538.0 C 7739.0,3568.0 7730.0,3607.0 7730.0,3624.0 C 7730.0,3641.0 7723.0,3725.0 7713.0,3811.0 L 7697.0,3967.0 L 7718.0,3997.0 C 7737.0,4024.0 7747.0,4028.0 7806.0,4033.0 C 7843.0,4037.0 7875.0,4042.0 7878.0,4045.0 C 7881.0,4048.0 7876.0,4058.0 7867.0,4067.0 C 7859.0,4077.0 7849.0,4102.0 7845.0,4123.0 C 7839.0,4154.0 7834.0,4160.0 7813.0,4160.0 C 7800.0,4160.0 7769.0,4171.0 7746.0,4185.0 L 7704.0,4210.0 L 7702.0,4287.0 C 7701.0,4330.0 7704.0,4370.0 7708.0,4377.0 C 7716.0,4389.0 7777.0,4408.0 7840.0,4417.0 C 7873.0,4422.0 7950.0,4482.0 7950.0,4502.0 C 7950.0,4507.0 7938.0,4529.0 7924.0,4551.0 C 7904.0,4583.0 7900.0,4600.0 7904.0,4625.0 C 7909.0,4652.0 7907.0,4658.0 7883.0,4671.0 C 7867.0,4678.0 7852.0,4686.0 7849.0,4687.0 C 7846.0,4689.0 7839.0,4680.0 7833.0,4667.0 L 7822.0,4643.0 L 7740.0,4659.0 C 7694.0,4668.0 7655.0,4681.0 7650.0,4690.0 C 7635.0,4713.0 7638.0,4740.0 7655.0,4740.0 C 7663.0,4740.0 7676.0,4752.0 7684.0,4768.0 C 7692.0,4783.0 7716.0,4805.0 7739.0,4818.0 C 7793.0,4848.0 7801.0,4888.0 7770.0,4968.0 C 7748.0,5027.0 7719.0,5169.0 7727.0,5183.0 C 7729.0,5187.0 7738.0,5190.0 7746.0,5190.0 C 7769.0,5190.0 7782.0,5237.0 7768.0,5263.0 C 7761.0,5275.0 7750.0,5301.0 7745.0,5320.0 C 7733.0,5358.0 7742.0,5355.0 7621.0,5359.0 L 7577.0,5360.0 L 7584.0,5423.0 C 7589.0,5468.0 7598.0,5492.0 7615.0,5510.0 C 7628.0,5524.0 7648.0,5569.0 7659.0,5610.0 C 7678.0,5675.0 7687.0,5691.0 7731.0,5732.0 C 7777.0,5773.0 7781.0,5780.0 7770.0,5800.0 C 7764.0,5812.0 7760.0,5823.0 7762.0,5824.0 C 7764.0,5825.0 7777.0,5831.0 7791.0,5837.0 C 7814.0,5847.0 7818.0,5856.0 7825.0,5912.0 C 7833.0,5980.0 7833.0,5982.0 7824.0,6053.0 L 7818.0,6100.0 L 7866.0,6121.0 C 7893.0,6133.0 7917.0,6144.0 7918.0,6146.0 C 7929.0,6154.0 7905.0,6192.0 7884.0,6200.0 C 7862.0,6209.0 7860.0,6214.0 7860.0,6285.0 C 7860.0,6355.0 7859.0,6360.0 7837.0,6366.0 C 7804.0,6374.0 7787.0,6447.0 7803.0,6507.0 C 7813.0,6545.0 7812.0,6552.0 7786.0,6589.0 C 7763.0,6622.0 7759.0,6637.0 7763.0,6665.0 C 7772.0,6718.0 7761.0,6770.0 7741.0,6770.0 C 7731.0,6770.0 7709.0,6785.0 7691.0,6804.0 C 7661.0,6835.0 7658.0,6843.0 7661.0,6888.0 L 7665.0,6937.0 L 7600.0,6982.0 C 7540.0,7024.0 7535.0,7030.0 7538.0,7061.0 C 7539.0,7080.0 7548.0,7109.0 7557.0,7127.0 C 7572.0,7156.0 7573.0,7166.0 7561.0,7222.0 C 7546.0,7289.0 7546.0,7298.0 7556.0,7347.0 C 7561.0,7373.0 7558.0,7381.0 7536.0,7395.0 C 7511.0,7412.0 7508.0,7412.0 7491.0,7396.0 C 7476.0,7383.0 7467.0,7381.0 7453.0,7389.0 C 7442.0,7394.0 7410.0,7402.0 7381.0,7406.0 C 7338.0,7412.0 7320.0,7409.0 7281.0,7390.0 C 7236.0,7369.0 7231.0,7369.0 7203.0,7384.0 C 7169.0,7401.0 7160.0,7429.0 7160.0,7517.0 C 7160.0,7556.0 7166.0,7579.0 7181.0,7599.0 C 7206.0,7632.0 7222.0,7742.0 7213.0,7815.0 C 7206.0,7874.0 7180.0,7907.0 7134.0,7916.0 C 7116.0,7919.0 7094.0,7930.0 7085.0,7940.0 C 7070.0,7956.0 7064.0,7957.0 7032.0,7946.0 C 7007.0,7937.0 6981.0,7936.0 6946.0,7942.0 C 6850.0,7958.0 6850.0,7958.0 6850.0,7990.0 C 6850.0,8015.0 6842.0,8026.0 6805.0,8049.0 C 6753.0,8082.0 6640.0,8232.0 6640.0,8269.0 C 6640.0,8282.0 6627.0,8316.0 6611.0,8344.0 C 6591.0,8381.0 6581.0,8414.0 6577.0,8465.0 C 6573.0,8518.0 6568.0,8537.0 6554.0,8545.0 C 6544.0,8550.0 6527.0,8566.0 6515.0,8579.0 C 6504.0,8592.0 6478.0,8622.0 6457.0,8644.0 L 6418.0,8684.0 L 6425.0,8762.0 C 6431.0,8824.0 6436.0,8843.0 6451.0,8851.0 C 6480.0,8866.0 6474.0,8903.0 6433.0,8954.0 L 6395.0,9000.0 L 6306.0,9000.0 C 6228.0,9000.0 6213.0,9003.0 6194.0,9021.0 C 6165.0,9048.0 6124.0,9040.0 6108.0,9005.0 C 6102.0,8991.0 6092.0,8980.0 6086.0,8980.0 C 6052.0,8980.0 5923.0,9013.0 5909.0,9026.0 C 5901.0,9034.0 5881.0,9040.0 5866.0,9040.0 C 5850.0,9040.0 5825.0,9051.0 5808.0,9065.0 C 5792.0,9079.0 5770.0,9090.0 5759.0,9090.0 C 5736.0,9090.0 5734.0,9116.0 5754.0,9165.0 L 5768.0,9199.0 L 5737.0,9206.0 C 5720.0,9209.0 5698.0,9217.0 5688.0,9223.0 C 5675.0,9232.0 5662.0,9230.0 5634.0,9217.0 C 5598.0,9200.0 5597.0,9200.0 5576.0,9220.0 C 5547.0,9246.0 5542.0,9246.0 5504.0,9209.0 C 5474.0,9180.0 5464.0,9177.0 5378.0,9169.0 C 5327.0,9164.0 5268.0,9159.0 5248.0,9156.0 C 5214.0,9152.0 5208.0,9155.0 5189.0,9186.0 C 5172.0,9214.0 5162.0,9220.0 5135.0,9220.0 C 5117.0,9220.0 5097.0,9226.0 5091.0,9233.0 C 5085.0,9241.0 5068.0,9245.0 5050.0,9242.0 C 5022.0,9238.0 5020.0,9239.0 5020.0,9273.0 C 5020.0,9325.0 4991.0,9327.0 4943.0,9278.0 C 4914.0,9248.0 4898.0,9239.0 4875.0,9241.0 C 4795.0,9246.0 4782.0,9242.0 4770.0,9204.0 L 4758.0,9168.0 L 4734.0,9191.0 L 4710.0,9213.0 L 4686.0,9191.0 L 4662.0,9168.0 L 4655.0,9199.0 C 4647.0,9235.0 4640.0,9237.0 4615.0,9210.0 C 4593.0,9186.0 4557.0,9184.0 4539.0,9206.0 C 4527.0,9221.0 4524.0,9219.0 4504.0,9194.0 C 4486.0,9172.0 4479.0,9169.0 4467.0,9178.0 C 4459.0,9185.0 4440.0,9188.0 4421.0,9184.0 C 4391.0,9178.0 4390.0,9178.0 4390.0,9213.0 C 4390.0,9243.0 4384.0,9254.0 4358.0,9272.0 C 4330.0,9291.0 4326.0,9300.0 4328.0,9327.0 C 4331.0,9354.0 4327.0,9362.0 4305.0,9372.0 C 4290.0,9379.0 4270.0,9401.0 4259.0,9422.0 C 4245.0,9450.0 4231.0,9462.0 4209.0,9467.0 C 4186.0,9471.0 4174.0,9483.0 4154.0,9521.0 C 4141.0,9548.0 4130.0,9583.0 4130.0,9600.0 C 4130.0,9641.0 4114.0,9670.0 4092.0,9670.0 C 4044.0,9670.0 3970.0,9796.0 3970.0,9876.0 C 3970.0,9919.0 3898.0,9999.0 3819.0,10042.0 C 3775.0,10066.0 3760.0,10080.0 3760.0,10096.0 C 3760.0,10109.0 3743.0,10132.0 3718.0,10154.0 C 3694.0,10174.0 3662.0,10202.0 3647.0,10217.0 C 3621.0,10240.0 3618.0,10241.0 3601.0,10226.0 C 3580.0,10207.0 3482.0,10205.0 3410.0,10221.0 C 3344.0,10236.0 3330.0,10237.0 3165.0,10233.0" fill="pink"/>
</svg>

<?xml version="1.0" standalone="no"?>
<!DOCTYPE svg PUBLIC "-//W3C//DTD SVG 20010904//EN"
 "http://www.w3.org/TR/2001/REC-SVG-20010904/DTD/svg10.dtd">
<svg version="1.0" xmlns="http://www.w3.org/2000/svg"
 width="1024.000000pt" height="1024.000000pt" viewBox="0 0 1024.000000 1024.000000"
 preserveAspectRatio="xMidYMid meet">
<metadata>
Created by potrace 1.10, written by Peter Selinger 2001-2011
</metadata>
<g transform="translate(0.000000,1024.000000) scale(0.100000,-0.100000)"
fill="#000000" stroke="none">
<path d="M3165 10233 c-119 -3 -151 -7 -158 -18 -9 -17 -93 -20 -167 -5 -39 7
-49 5 -76 -15 -39 -30 -90 -165 -138 -367 l-35 -146 23 -80 c22 -77 23 -81 5
-99 -22 -23 -15 -73 13 -81 11 -2 32 -30 48 -62 l29 -57 -21 -59 c-12 -32 -39
-84 -60 -115 l-37 -57 -118 -7 c-145 -9 -152 -15 -152 -120 0 -63 2 -72 24
-88 21 -15 30 -16 72 -6 26 7 64 20 85 30 107 54 186 28 273 -87 l55 -73 0
-90 c0 -88 -1 -90 -44 -160 -32 -52 -45 -84 -49 -124 -7 -67 -34 -122 -101
-205 l-51 -63 -67 4 -68 4 -31 -48 c-17 -27 -39 -49 -48 -49 -11 0 -29 -25
-52 -72 -35 -72 -35 -74 -24 -131 7 -32 14 -59 16 -60 2 -2 28 -20 57 -41 l52
-38 0 -73 c0 -70 2 -75 29 -94 24 -17 30 -31 36 -77 5 -46 14 -64 45 -98 36
-39 38 -46 49 -141 10 -87 9 -107 -4 -145 -9 -25 -23 -69 -30 -98 l-14 -53 40
-86 c23 -51 39 -99 37 -117 -1 -24 17 -56 84 -151 72 -100 87 -128 93 -170 4
-27 27 -108 52 -180 44 -125 48 -133 113 -200 51 -52 75 -87 94 -134 14 -36
26 -69 26 -75 -1 -6 -14 -27 -30 -46 -34 -39 -36 -51 -15 -111 20 -56 48 -85
165 -169 128 -92 137 -102 142 -175 4 -57 9 -68 105 -207 l100 -147 7 -115 c5
-79 4 -127 -5 -154 -15 -51 -8 -77 36 -135 19 -25 35 -54 35 -65 0 -32 36 -68
128 -129 102 -68 139 -106 148 -151 4 -20 18 -42 35 -54 43 -32 99 -124 120
-195 20 -72 52 -117 144 -201 53 -48 72 -75 105 -148 36 -76 40 -95 35 -134
-6 -42 15 -217 34 -285 7 -25 1 -46 -30 -114 -45 -97 -47 -121 -19 -257 14
-69 26 -104 40 -114 10 -8 37 -43 59 -78 l41 -62 -15 -103 c-25 -179 -25 -186
6 -247 36 -72 72 -105 143 -130 73 -25 140 -84 185 -165 l33 -60 -10 -167
c-10 -147 -14 -173 -37 -217 -20 -40 -25 -65 -25 -121 0 -61 7 -89 48 -198 34
-89 51 -149 56 -200 5 -58 13 -83 35 -116 36 -51 129 -125 205 -163 l58 -28
-7 -60 c-4 -39 -23 -96 -54 -165 -26 -58 -56 -126 -67 -152 -17 -43 -22 -48
-50 -48 -20 0 -39 9 -54 25 -26 27 -70 34 -70 11 0 -53 49 -96 111 -96 22 0
43 -10 70 -35 36 -33 44 -35 105 -35 49 0 76 -6 104 -21 35 -20 39 -20 68 -5
17 9 48 16 69 16 21 0 49 7 62 16 17 13 36 15 79 11 49 -5 59 -3 85 19 24 20
40 25 71 23 23 -2 59 2 81 9 22 6 56 14 77 17 46 7 51 23 37 98 -12 59 -12 61
12 76 13 9 47 38 76 64 43 40 64 52 123 67 40 10 96 31 126 47 l54 28 0 55 c0
39 6 62 20 80 11 14 20 41 20 60 0 47 43 150 72 172 13 10 44 25 69 33 41 14
49 14 75 0 33 -17 94 -19 143 -5 43 12 106 -17 115 -53 3 -14 16 -31 29 -40
21 -13 27 -12 87 24 57 35 71 39 129 39 36 0 85 -5 108 -10 37 -9 53 -6 125
20 45 17 91 30 101 30 11 0 45 27 78 63 47 52 66 66 101 73 l43 9 8 85 c4 47
10 114 13 150 3 36 10 69 15 74 5 6 9 52 9 104 0 84 3 98 28 140 24 41 27 57
27 132 l0 85 99 52 c55 29 103 56 108 61 5 5 -1 20 -13 36 -21 26 -21 32 -10
92 l12 65 -31 25 c-34 29 -38 49 -13 76 15 17 15 19 0 36 -23 25 -21 49 3 57
17 5 20 15 20 66 0 42 7 72 22 102 17 32 23 67 28 152 6 97 10 116 35 159 41
69 36 123 -20 250 -25 54 -48 114 -51 134 -4 19 -25 74 -46 121 -33 71 -39 93
-35 130 3 29 -2 63 -14 99 -10 30 -19 69 -19 86 0 17 -7 101 -17 187 l-16 156
21 30 c19 27 29 31 88 36 37 4 69 9 72 12 3 3 -2 13 -11 22 -8 10 -18 35 -22
56 -6 31 -11 37 -32 37 -13 0 -44 11 -67 25 l-42 25 -2 77 c-1 43 2 83 6 90 8
12 69 31 132 40 33 5 110 65 110 85 0 5 -12 27 -26 49 -20 32 -24 49 -20 74 5
27 3 33 -21 46 -16 7 -31 15 -34 16 -3 2 -10 -7 -16 -20 l-11 -24 -82 16 c-46
9 -85 22 -90 31 -15 23 -12 50 5 50 8 0 21 12 29 28 8 15 32 37 55 50 54 30
62 70 31 150 -22 59 -51 201 -43 215 2 4 11 7 19 7 23 0 36 47 22 73 -7 12
-18 38 -23 57 -12 38 -3 35 -124 39 l-44 1 7 63 c5 45 14 69 31 87 13 14 33
59 44 100 19 65 28 81 72 122 46 41 50 48 39 68 -6 12 -10 23 -8 24 2 1 15 7
29 13 23 10 27 19 34 75 8 68 8 70 -1 141 l-6 47 48 21 c27 12 51 23 52 25 11
8 -13 46 -34 54 -22 9 -24 14 -24 85 0 70 -1 75 -23 81 -33 8 -50 81 -34 141
10 38 9 45 -17 82 -23 33 -27 48 -23 76 9 53 -2 105 -22 105 -10 0 -32 15 -50
34 -30 31 -33 39 -30 84 l4 49 -65 45 c-60 42 -65 48 -62 79 1 19 10 48 19 66
15 29 16 39 4 95 -15 67 -15 76 -5 125 5 26 2 34 -20 48 -25 17 -28 17 -45 1
-15 -13 -24 -15 -38 -7 -11 5 -43 13 -72 17 -43 6 -61 3 -100 -16 -45 -21 -50
-21 -78 -6 -34 17 -43 45 -43 133 0 39 6 62 21 82 25 33 41 143 32 216 -7 59
-33 92 -79 101 -18 3 -40 14 -49 24 -15 16 -21 17 -53 6 -25 -9 -51 -10 -86
-4 -96 16 -96 16 -96 48 0 25 -8 36 -45 59 -52 33 -165 183 -165 220 0 13 -13
47 -29 75 -20 37 -30 70 -34 121 -4 53 -9 72 -23 80 -10 5 -27 21 -39 34 -11
13 -37 43 -58 65 l-39 40 7 78 c6 62 11 81 26 89 29 15 23 52 -18 103 l-38 46
-89 0 c-78 0 -93 3 -112 21 -29 27 -70 19 -86 -16 -6 -14 -16 -25 -22 -25 -34
0 -163 33 -177 46 -8 8 -28 14 -43 14 -16 0 -41 11 -58 25 -16 14 -38 25 -49
25 -23 0 -25 26 -5 75 l14 34 -31 7 c-17 3 -39 11 -49 17 -13 9 -26 7 -54 -6
-36 -17 -37 -17 -58 3 -29 26 -34 26 -72 -11 -30 -29 -40 -32 -126 -40 -51 -5
-110 -10 -130 -13 -34 -4 -40 -1 -59 30 -17 28 -27 34 -54 34 -18 0 -38 6 -44
13 -6 8 -23 12 -41 9 -28 -4 -30 -3 -30 31 0 52 -29 54 -77 5 -29 -30 -45 -39
-68 -37 -80 5 -93 1 -105 -37 l-12 -36 -24 23 -24 22 -24 -22 -24 -23 -7 31
c-8 36 -15 38 -40 11 -22 -24 -58 -26 -76 -4 -12 15 -15 13 -35 -12 -18 -22
-25 -25 -37 -16 -8 7 -27 10 -46 6 -30 -6 -31 -6 -31 29 0 30 -6 41 -32 59
-28 19 -32 28 -30 55 3 27 -1 35 -23 45 -15 7 -35 29 -46 50 -14 28 -28 40
-50 45 -23 4 -35 16 -55 54 -13 27 -24 62 -24 79 0 41 -16 70 -38 70 -48 0
-122 126 -122 206 0 43 -72 123 -151 166 -44 24 -59 38 -59 54 0 13 -17 36
-42 58 -24 20 -56 48 -71 63 -26 23 -29 24 -46 9 -21 -19 -119 -21 -191 -5
-66 15 -80 16 -245 12z"/>
</g>
</svg>
